X:62
T:Ally Croaker. JBi.61
M:2/4
L:1/8
Q:1/2=100
S:James Biggins MS, Leeds, 1779.
R:.Reel
O:England
A:Yorkshire
N:Inconsistent repeats in MS shown here.
Z:vmp.Nick Barber & Chris Partington
K:G
G2G>G|G2G2|AGFG|A>Bcd|BGGG|G3G|A>GFG|A>Bc2:|!
|:{B/c/}d2dd|d3d|edcB|ABc2|{AB}c2cc|c3c|dcBA|GAB2|!
G2G>G|F2GF|E2FE|D2D2|c2cc|{c}B2Ac|BGcA|F2G2|]

